X:55
T:Steyrer Tanz in G, nr. 13
C:traditionell
R:Steirer
A:Hallstatt, Salzkammergut
B:Corpus Musicae Popularis Austriacae (COMPA), 5.Band: J.M.Schmalnauer " Tanz Musik", Verlag Boehlau, Wien 1996
S:manuscript des Johann Michael Schmalnauer um 1820
N:im der quelle in G
Z:abc transcription Simon Wascher
F:http://simonwascher.info/TradArchiv/
M:3/4
L:1/8
K:G
V:1
%violino 1mo
Bc |\
(dB) Td2 .d.g | (ec) e2 .A.B | cA A2 FD | .G.A.Bcde |\
(dB) Td2 .d.g | (ec) e2 .A.B | cA A2 FD | "in D" G4 :|
V:2
%violino 2do
GA |\
(BG) TB2 .G.B | (cA) Tc2 .F.G | (AF) TF2 DC | .B,.D.G.A.B.c |\
(BG) TB2 .G.B | (cA) Tc2 .F.G | (AF) TF2 DC | B,4 :|
